src/assets/images/discover-end-right.svg

<svg width="219" height="324" viewBox="0 0 219 324" fill="none" xmlns="http://www.w3.org/2000/svg">
<path d="M117.835 263.06L117.259 262.727C116.52 264.012 115.045 264.608 113.673 264.298C113.357 264.226 113.048 264.109 112.751 263.938C111.467 263.199 110.87 261.725 111.179 260.352C111.251 260.036 111.37 259.727 111.541 259.431C112.281 258.146 113.754 257.55 115.126 257.859C115.441 257.93 115.752 258.049 116.048 258.22C117.333 258.959 117.929 260.433 117.62 261.804C117.549 262.12 117.429 262.431 117.259 262.727L117.835 263.06L118.414 263.393C118.652 262.979 118.82 262.543 118.921 262.098C119.357 260.17 118.515 258.105 116.714 257.065C116.3 256.827 115.864 256.658 115.42 256.558C113.492 256.122 111.428 256.962 110.386 258.764C110.148 259.177 109.979 259.613 109.879 260.058C109.443 261.987 110.283 264.052 112.086 265.093C112.498 265.331 112.934 265.498 113.379 265.598C115.308 266.036 117.373 265.196 118.414 263.393L117.835 263.06Z" fill="#F1425A"/>
<path d="M108.965 269.171L89.5942 302.762L90.7488 303.429L110.12 269.836" fill="#F1425A"/>
<path d="M138.052 218.732L118.821 252.08L119.976 252.746L139.207 219.397" fill="#F1425A"/>
<path d="M104.214 261.226L65.9992 264.283L66.1063 265.611L104.321 262.556" fill="#F1425A"/>
<path d="M162.695 256.548L124.476 259.605L124.583 260.933L162.8 257.877" fill="#F1425A"/>
<path d="M117.953 270.082L134.668 305.148L135.872 304.574L119.157 269.508" fill="#F1425A"/>
<path d="M92.9296 217.585L109.612 252.585L110.815 252.011L94.1334 217.012" fill="#F1425A"/>
<path d="M74.4982 284.858L69.1926 288.125L69.8914 289.26L75.1967 285.995" fill="#F1425A"/>
<path d="M101.617 268.168L80.262 281.312L80.9608 282.448L102.316 269.304" fill="#F1425A"/>
<path d="M148.005 239.615L126.183 253.047L126.882 254.182L148.703 240.75" fill="#F1425A"/>
<path d="M158.908 232.899L154.387 235.681L155.086 236.817L159.607 234.035" fill="#F1425A"/>
<path d="M73.612 240.497L67.3238 237.438L66.7409 238.637L73.0278 241.696" fill="#F1425A"/>
<path d="M102.033 254.324L79.0432 243.142L78.4593 244.34L101.449 255.523" fill="#F1425A"/>
<path d="M150.493 277.898L127.565 266.745L126.982 267.944L149.91 279.097" fill="#F1425A"/>
<path d="M162.061 283.523L156.61 280.872L156.027 282.072L161.478 284.723" fill="#F1425A"/>
<path d="M111.366 307.341L111.043 313.654L112.376 313.721L112.698 307.409" fill="#F1425A"/>
<path d="M112.976 275.877L111.671 301.375L113.002 301.442L114.308 275.944" fill="#F1425A"/>
<path d="M115.788 220.91L114.469 246.672L115.8 246.741L117.119 220.977" fill="#F1425A"/>
<path d="M116.24 212.052L116.135 214.092L117.468 214.16L117.571 212.12" fill="#F1425A"/>
<path d="M116.426 208.44L116.135 214.122L117.466 214.19L117.757 208.508" fill="#F1425A"/>
<path d="M99.9106 106.943C99.045 106.986 98.1406 107.129 97.2552 107.055C94.8773 106.852 93.4925 104.936 93.9367 102.596C94.1568 101.447 94.7153 100.428 95.1766 99.3727C95.6112 98.3814 96.1985 97.4165 95.8799 96.2618C95.7184 95.6703 96.1727 95.4805 96.5061 95.2032C97.0243 94.7735 97.3885 94.8312 97.6646 95.4965C98.0607 96.4472 97.9697 97.4 97.6762 98.3233C97.4083 99.1759 96.9953 99.9806 96.6558 100.812C96.3907 101.464 96.0786 102.107 95.9021 102.785C95.5486 104.155 96.1882 105.075 97.6133 105.126C98.6304 105.162 99.6564 104.989 100.676 104.881C101.377 104.806 102.066 104.676 102.78 104.74C105.577 104.988 107.003 106.995 106.246 109.719C106.025 110.516 105.639 111.269 105.324 112.039C105.055 112.692 104.714 113.322 104.515 113.993C104.015 115.669 104.711 116.659 106.452 116.654C107.471 116.65 108.49 116.446 109.504 116.303C110.799 116.12 112.07 116.121 113.251 116.776C113.626 116.985 114.192 117.232 114.045 117.717C113.878 118.264 113.22 118.847 112.74 118.6C110.876 117.64 109.075 118.523 107.255 118.573C106.87 118.584 106.483 118.624 106.1 118.601C103.442 118.443 101.929 116.423 102.534 113.817C102.814 112.623 103.438 111.558 103.912 110.437C104.334 109.434 104.946 108.374 104.138 107.357C103.347 106.361 102.168 106.645 101.085 106.774C100.704 106.82 100.323 106.883 99.9106 106.943Z" fill="#737AB4"/>
<path d="M132.061 93.165C131.865 92.7104 131.952 92.4377 132.258 92.2293C133.839 91.1309 135.417 90.0264 137.002 88.9344C137.444 88.631 137.813 88.6883 138.136 89.1646C139.183 90.7029 140.257 92.2251 141.315 93.7547C141.697 94.303 141.498 94.6724 140.981 95.0215C139.491 96.0256 138.026 97.067 136.551 98.0922C136.213 98.3276 135.801 98.5038 135.524 98.1171C134.323 96.4499 133.168 94.7533 132.061 93.165Z" fill="#737AB4"/>
<path d="M68.9944 60.8748C66.7276 61.4408 64.8496 62.9276 63.4056 64.6796C61.9527 66.4453 60.8318 68.4757 59.9847 70.6041C59.102 72.723 58.4848 74.9498 58.0969 77.2148C57.8981 78.3495 57.771 79.4958 57.7258 80.6439C57.662 81.7954 57.7034 82.9531 57.842 84.1051C57.3256 81.8348 57.3626 79.4597 57.6572 77.1479C57.9597 74.8314 58.5925 72.5625 59.4523 70.3863C60.3603 68.2355 61.502 66.149 63.0708 64.3907C63.857 63.52 64.7406 62.7258 65.7367 62.1009C66.7366 61.4911 67.8419 61.0334 68.9944 60.8748Z" fill="#E3DFE9"/>
<path d="M64.2702 62.1268C65.7828 60.5185 67.6925 58.9628 68.0649 59.1492C68.4401 59.34 68.319 61.8002 67.9212 63.971C67.4995 66.2721 62.6688 63.8321 64.2702 62.1268Z" fill="#C655CB"/>
<path d="M104.804 39.3776C98.8566 51.1458 79.0574 66.6353 67.287 60.6892C55.5181 54.7453 56.2353 29.6153 62.181 17.8467C68.1253 6.076 82.4877 1.35454 94.2562 7.30024C106.027 13.2463 110.748 27.6069 104.804 39.3776Z" fill="#C655CB"/>
<path d="M101.154 42.2586C95.6623 52.185 77.8616 64.698 68.3218 59.4198C58.7857 54.1424 75.1774 55.329 80.6695 45.4026C86.1616 35.4761 90.8431 29.875 97.9836 28.866C108.933 27.318 106.647 32.3304 101.154 42.2586Z" fill="#BD4DC2"/>
<path d="M89.6568 12.7798L89.5546 12.7548C89.092 12.6298 88.6312 12.5219 88.1774 12.4323L88.108 12.4184C86.7372 12.1085 85.8572 10.7625 86.1298 9.37584C86.4111 7.96698 87.7805 7.04951 89.1876 7.33043C89.7554 7.44207 90.3308 7.57775 90.8987 7.7303C92.2872 8.10183 93.1118 9.5283 92.7389 10.9146C92.3772 12.2681 91.0099 13.0857 89.6568 12.7798Z" fill="#EFF2F3"/>
<path d="M68.0382 21.3633L67.936 21.3384C66.5493 20.9672 65.7247 19.5408 66.0958 18.1541C67.8573 11.5878 76.0164 6.52558 81.4599 6.98652C82.8942 7.10625 83.9534 8.36641 83.8345 9.79711C83.7112 11.2305 82.4525 12.292 81.0204 12.1709C77.8155 11.8981 72.1553 15.6438 71.1217 19.5003C70.7578 20.8552 69.3931 21.6696 68.0382 21.3633Z" fill="#EFF2F3"/>
</svg>

<svg width="219" height="324" fill="none" xmlns="http://www.w3.org/2000/svg"><path d="m117.835 263.06-.576-.333a3.3 3.3 0 1 1-5.719-3.297 3.3 3.3 0 0 1 5.719 3.297l.576.333.579.333a4.636 4.636 0 0 0-2.994-6.835 4.637 4.637 0 0 0-5.541 3.5 4.636 4.636 0 0 0 3.5 5.54 4.632 4.632 0 0 0 5.035-2.205l-.579-.333ZM108.965 269.171l-19.37 33.591 1.154.667 19.371-33.593M138.052 218.732l-19.231 33.348 1.155.666 19.231-33.349M104.214 261.226l-38.215 3.057.107 1.328 38.215-3.055M162.695 256.548l-38.219 3.057.107 1.328 38.217-3.056M117.953 270.082l16.715 35.066 1.204-.574-16.715-35.066M92.93 217.585l16.682 35 1.203-.574-16.682-34.999M74.498 284.858l-5.305 3.267.698 1.135 5.306-3.265M101.617 268.168l-21.355 13.144.699 1.136 21.355-13.144M148.005 239.615l-21.822 13.432.699 1.135 21.821-13.432M158.908 232.899l-4.521 2.782.699 1.136 4.521-2.782M73.612 240.497l-6.288-3.059-.583 1.199 6.287 3.059M102.033 254.324l-22.99-11.182-.584 1.198 22.99 11.183M150.493 277.898l-22.928-11.153-.583 1.199 22.928 11.153M162.061 283.523l-5.451-2.651-.583 1.2 5.451 2.651M111.366 307.341l-.323 6.313 1.333.067.322-6.312M112.976 275.877l-1.305 25.498 1.331.067 1.306-25.498M115.788 220.91l-1.319 25.762 1.331.069 1.319-25.764M116.24 212.052l-.105 2.04 1.333.068.103-2.04" fill="#F1425A"/><path d="m116.426 208.44-.291 5.682 1.331.068.291-5.682" fill="#F1425A"/><path d="M99.91 106.943c-.865.043-1.77.186-2.655.112-2.378-.203-3.762-2.119-3.318-4.459.22-1.149.778-2.168 1.24-3.223.434-.992 1.021-1.957.703-3.111-.162-.592.293-.781.626-1.059.518-.43.882-.372 1.159.293.396.951.305 1.904.011 2.827-.268.853-.68 1.658-1.02 2.489-.265.652-.577 1.295-.754 1.973-.353 1.37.286 2.29 1.711 2.341 1.017.036 2.043-.137 3.063-.245.701-.075 1.39-.205 2.104-.141 2.797.248 4.223 2.255 3.466 4.979-.221.797-.607 1.55-.922 2.32-.269.653-.61 1.283-.809 1.954-.5 1.676.196 2.666 1.937 2.661 1.019-.004 2.038-.208 3.052-.351 1.295-.183 2.566-.182 3.747.473.375.209.941.456.794.941-.167.547-.825 1.13-1.305.883-1.864-.96-3.665-.077-5.485-.027-.385.011-.772.051-1.155.028-2.658-.158-4.171-2.178-3.566-4.784.28-1.194.904-2.259 1.378-3.38.422-1.003 1.034-2.063.226-3.08-.791-.996-1.97-.712-3.053-.583-.381.046-.762.109-1.174.169ZM132.061 93.165c-.196-.455-.109-.727.197-.936 1.581-1.098 3.159-2.203 4.744-3.295.442-.303.811-.246 1.134.23 1.047 1.539 2.121 3.061 3.179 4.59.382.549.183.918-.334 1.267-1.49 1.005-2.955 2.046-4.43 3.071-.338.236-.75.412-1.027.025-1.201-1.667-2.356-3.364-3.463-4.952Z" fill="#737AB4"/><path d="M68.994 60.875c-2.266.566-4.144 2.053-5.588 3.805-1.453 1.765-2.574 3.796-3.421 5.924-.883 2.119-1.5 4.346-1.888 6.61a25.754 25.754 0 0 0-.371 3.43 19.803 19.803 0 0 0 .116 3.461c-.516-2.27-.48-4.645-.185-6.957.303-2.317.936-4.585 1.795-6.762.908-2.15 2.05-4.237 3.619-5.995.786-.871 1.67-1.665 2.666-2.29 1-.61 2.105-1.068 3.257-1.226Z" fill="#E3DFE9"/><path d="M64.27 62.127c1.513-1.608 3.422-3.164 3.795-2.978.375.191.254 2.651-.144 4.822-.422 2.301-5.252-.139-3.65-1.844Z" fill="#C655CB"/><path d="M104.804 39.378c-5.947 11.768-25.747 27.257-37.517 21.311-11.769-5.944-11.052-31.074-5.106-42.842C68.125 6.076 82.488 1.355 94.256 7.3c11.771 5.946 16.492 20.307 10.548 32.078Z" fill="#C655CB"/><path d="M101.154 42.259c-5.492 9.926-23.292 22.439-32.832 17.16-9.536-5.277 6.855-4.09 12.347-14.016 5.493-9.927 10.174-15.528 17.315-16.537 10.949-1.548 8.663 3.464 3.17 13.393Z" fill="#BD4DC2"/><path d="m89.657 12.78-.102-.025a20.549 20.549 0 0 0-1.378-.323l-.069-.014a2.603 2.603 0 0 1-1.978-3.042 2.603 2.603 0 0 1 3.058-2.046c.567.112 1.143.248 1.71.4a2.6 2.6 0 0 1-1.242 5.05ZM68.038 21.363l-.102-.025a2.602 2.602 0 0 1-1.84-3.184c1.761-6.566 9.92-11.628 15.364-11.167a2.601 2.601 0 1 1-.44 5.184c-3.204-.273-8.865 3.473-9.898 7.33a2.6 2.6 0 0 1-3.084 1.862Z" fill="#EFF2F3"/></svg>
